!!!!SEGMENT: pl-sa--25-a-i-25--005_luna-georgius--vesperae-laudate-dominum.krn
!!!cenid: 17xx:487
!!!COM: Luna, Georgius
!!!COM-rismid: pe41010079
!!!CDT:
!!!CNT:
!!!OPR: Vesperae
!!!OTL: Laudate Dominum
!!!OMV: 005
!!!PDT:
!!!AGN: Sacred; Vespers
!!!SMS-siglum: PL-SA
!!!SMS-shelfmark: 25/A I 25
!!!SMS-shelfwork: 001-005 M
!!!SMS-variant:
!!!SMS-altvar:
!!!NIFC-rismid: 1001068245
!!!system-decoration: [(s1,s2)][(s3,s4,s5)][(s6,s7)]s8
!!!key:
**kern	**kern	**kern	**kern	**text	**kern	**text	**kern	**text	**kern	**kern
*part8	*part7	*part6	*part5	*part5	*part4	*part4	*part3	*part3	*part2	*part1
*staff8	*staff7	*staff6	*staff5	*staff5	*staff4	*staff4	*staff3	*staff3	*staff2	*staff1
*Iempty	*Ivioln	*Ivioln	*Iempty	*	*Itenor	*	*Ivox	*	*Iempty	*Iempty
*I"Fundamento	*I"Violino 2do	*I"Violino 1mo	*I"Baſso	*	*I"Tenore	*	*I"Canto	*	*I"Clarino 2do ex D	*I"Clarino 1mo ex D
*I'bc	*I'vl 2	*I'vl 1	*I'B	*	*I'T	*	*I'S	*	*I'clno 2 in D	*I'clno 1 in D
*clefF4	*clefG2	*clefG2	*clefF4	*	*clefC4	*	*clefC1	*	*clefG2	*clefG2
*	*	*	*	*	*	*	*	*	*ITrd-1c-2	*ITrd-1c-2
*k[f#c#]	*k[f#c#]	*k[f#c#]	*k[f#c#]	*	*k[f#c#]	*	*k[f#c#]	*	*k[f#c#]	*k[f#c#]
*D:	*D:	*D:	*D:	*	*D:	*	*D:	*	*D:	*D:
*M4/4	*M4/4	*M4/4	*M4/4	*	*M4/4	*	*M4/4	*	*M4/4	*M4/4
*met(c)	*met(c)	*met(c)	*met(c)	*	*met(c)	*	*met(c)	*	*met(c)	*met(c)
=1	=1	=1	=1	=1	=1	=1	=1	=1	=1	=1
*2\right	*2\right	*	*	*	*	*	*	*	*	*
!	!	!	!LO:SIC:o=L:v:t=w źródle 'L' znajduje się po lewej stronie przed kluczem i oznaczeniem metrum	!	!LO:SIC:o=L:v:t=w źródle 'L' znajduje się po lewej stronie przed kluczem i oznaczeniem metrum	!	!LO:SIC:o=L:v:t=w źródle 'L' znajduje się po lewej stronie przed kluczem i oznaczeniem metrum	!	!	!
!LO:SIC:o=Laudate Dominum:v:t=w źródle tekst ten znajduje się po lewej stronie; 'L' przed kluczem i oznaczeniem metrum	!LO:SIC:o=Laudate Dominum:v:t=w źródle tekst ten znajduje się po lewej stronie; 'L' przed kluczem i oznaczeniem metrum	!LO:SIC:o=Laudate Dominum:v:t=w źródle tekst ten znajduje się po lewej stronie; 'L' przed kluczem i oznaczeniem metrum	!	!	!	!	!	!	!	!
!	!	!	!	!	!	!	!	!	!LO:SIC:o=Laudate Dominum:v:t=w źródle tekst ten znajduje się po lewej stronie przed kluczem i oznaczeniem metrum	!LO:SIC:o=Laudate Dominum:v:t=w źródle tekst ten znajduje się po lewej stronie przed kluczem i oznaczeniem metrum
!	!	!LO:TX:a:i:t=allo	!LO:TX:a:i:t=allo	!	!	!	!	!	!LO:TX:a:i:t=allo	!LO:TX:a:i:t=Allo
4D/	4ff#\	4ddd\	00r	.	00r	.	00r	.	4dd\	4ff#\
4AA/	4ee\	4ccc#\	.	.	.	.	.	.	4a/	4ee\
8D\L	16ff#\LL	16ddd\LL	.	.	.	.	.	.	8dd\L	8ff#\L
.	16aa\	16aa\	.	.	.	.	.	.	.	.
8D\	16aa\	16aa\	.	.	.	.	.	.	16dd\L	16ff#\L
.	16ff#\JJ	16ff#\JJ	.	.	.	.	.	.	16dd\JJ	16ff#\JJ
8F#\	16dd/LL	16dd/LL	.	.	.	.	.	.	8dd\L	8ff#\L
.	16a/	16a/	.	.	.	.	.	.	.	.
8D\J	16f#/	16f#/	.	.	.	.	.	.	8dd\J	8ff#\J
.	16d/JJ	16d/JJ	.	.	.	.	.	.	.	.
=2	=2	=2	=2	=2	=2	=2	=2	=2	=2	=2
!LO:TX:a:t=P:problem=mixed beam	!	!	!	!	!	!	!	!	!	!
8G\L	8.b/L	8.b\L	.	.	.	.	.	.	4a/	4ee\
8E\	.	.	.	.	.	.	.	.	.	.
.	16g/Jk	16ee\Jk	.	.	.	.	.	.	.	.
.	8qqf#/	8qqdd/	.	.	.	.	.	.	.	.
8A\	4e/	4cc#\	.	.	.	.	.	.	8r	8r
8AA/J	.	.	.	.	.	.	.	.	8a/	8ee\
!	!LO:TX:a:t=P:problem=mixed beam	!	!	!	!	!	!	!	!	!
8D\L	16f#/LL	16dd\LL	.	.	.	.	.	.	8dd\L	8ff#\L
.	16aa\	16aa\	.	.	.	.	.	.	.	.
8D\	16aa\	16aa\	.	.	.	.	.	.	16dd\L	16ff#\L
.	16ff#\JJ	16ff#\JJ	.	.	.	.	.	.	16dd\JJ	16ff#\JJ
8F#\	16dd/LL	16dd/LL	.	.	.	.	.	.	8dd\L	8ff#\L
.	16a/	16a/	.	.	.	.	.	.	.	.
8D\J	16f#/	16f#/	.	.	.	.	.	.	8dd\J	8ff#\J
.	16d/JJ	16d/JJ	.	.	.	.	.	.	.	.
=3	=3	=3	=3	=3	=3	=3	=3	=3	=3	=3
!LO:TX:a:t=P:problem=mixed beam	!	!	!	!	!	!	!	!	!	!
8G\L	8.b/L	8.b\L	.	.	.	.	.	.	4a/	4ee\
8E\	.	.	.	.	.	.	.	.	.	.
.	16g/Jk	16ee\Jk	.	.	.	.	.	.	.	.
.	8qqf#/	8qqdd/	.	.	.	.	.	.	.	.
8A\	4e/	4cc#\	.	.	.	.	.	.	8r	8r
8AA/J	.	.	.	.	.	.	.	.	8a/	8ee\
*tremolo	*	*	*	*	*	*	*	*	*	*
!	!LO:TX:a:t=P:problem=mixed beam	!	!	!	!	!	!	!	!	!
8D\L	16f#/LL	8dd\L	.	.	.	.	.	.	8dd\L	8ff#\L
.	16dd\	.	.	.	.	.	.	.	.	.
8D\	16ee\	16ee\L	.	.	.	.	.	.	16dd\L	16ff#\L
.	16ff#\JJ	16ff#\JJ	.	.	.	.	.	.	16dd\JJ	16ff#\JJ
8D\	16gg\LL	16gg\LL	.	.	.	.	.	.	8dd\L	8ff#\L
.	16aa\	16aa\	.	.	.	.	.	.	.	.
8D\J	16bb\	16bb\	.	.	.	.	.	.	8dd\J	8ff#\J
.	16ccc#\JJ	16ccc#\JJ	.	.	.	.	.	.	.	.
=4	=4	=4	=4	=4	=4	=4	=4	=4	=4	=4
8D\L	16aa\LL	16ddd\LL	.	.	.	.	.	.	4dd\	4ff#\
.	16aa\	16ddd\	.	.	.	.	.	.	.	.
8D\	16ff#\	16aa\	.	.	.	.	.	.	.	.
.	16ff#\JJ	16aa\JJ	.	.	.	.	.	.	.	.
8D\	16dd\LL	16ff#\LL	.	.	.	.	.	.	4r	4r
.	16dd\	16ff#\	.	.	.	.	.	.	.	.
8D\J	16a\	16dd\	.	.	.	.	.	.	.	.
.	16a\JJ	16dd\JJ	.	.	.	.	.	.	.	.
8D\L	16bb\LL	16ddd\LL	.	.	.	.	.	.	4dd\	4gg\
.	16bb\	16ddd\	.	.	.	.	.	.	.	.
8D\	16gg\	16bb\	.	.	.	.	.	.	.	.
.	16gg\JJ	16bb\JJ	.	.	.	.	.	.	.	.
8D\	16dd\LL	16gg\LL	.	.	.	.	.	.	4r	4r
.	16dd\	16gg\	.	.	.	.	.	.	.	.
8D\J	16b\	16dd\	.	.	.	.	.	.	.	.
.	16b\JJ	16dd\JJ	.	.	.	.	.	.	.	.
*Xtremolo	*	*	*	*	*	*	*	*	*	*
=5	=5	=5	=5	=5	=5	=5	=5	=5	=5	=5
8D\L	16aa\LL	16ddd\LL	00r	.	00r	.	00r	.	4dd\	4ff#\
.	16aa\	16ddd\	.	.	.	.	.	.	.	.
8D\	16ff#\	16aa\	.	.	.	.	.	.	.	.
.	16ff#\JJ	16aa\JJ	.	.	.	.	.	.	.	.
8C#\	16ee\LL	16gg\LL	.	.	.	.	.	.	4r	4r
.	16ee\	16gg\	.	.	.	.	.	.	.	.
8D\J	16dd\	16ff#\	.	.	.	.	.	.	.	.
.	16dd\JJ	16ff#\JJ	.	.	.	.	.	.	.	.
!LO:TX:a:t=P:problem=mixed beam	!	!	!	!	!	!	!	!	!	!
8A\L	16ee\LL	16aa\LL	.	.	.	.	.	.	4a/	4ee\
.	16ee\	16aa\	.	.	.	.	.	.	.	.
8AA/	16cc#\	16ee\	.	.	.	.	.	.	.	.
.	16cc#\JJ	16ee\JJ	.	.	.	.	.	.	.	.
8AA/	16a/LL	16cc#\LL	.	.	.	.	.	.	4r	4r
.	16a/	16cc#\	.	.	.	.	.	.	.	.
8AA/J	16f#/	16a\	.	.	.	.	.	.	.	.
.	16f#/JJ	16a\JJ	.	.	.	.	.	.	.	.
=6	=6	=6	=6	=6	=6	=6	=6	=6	=6	=6
*tremolo	*	*	*	*	*	*	*	*	*	*
8AA/L	16ff#\LL	16aa\LL	.	.	.	.	.	.	4dd\	4ff#\
.	16ff#\	16aa\	.	.	.	.	.	.	.	.
8AA/	16dd\	16ff#\	.	.	.	.	.	.	.	.
.	16dd\JJ	16ff#\JJ	.	.	.	.	.	.	.	.
!	!	!LO:LB:g=original	!	!	!	!	!	!	!	!
8AA/	16a/LL	16dd\LL	.	.	.	.	.	.	4r	4r
.	16a/	16dd\	.	.	.	.	.	.	.	.
8AA/J	16f#/	16a\	.	.	.	.	.	.	.	.
.	16f#/JJ	16a\JJ	.	.	.	.	.	.	.	.
8AA/L	16ee\LL	16gg\LL	.	.	.	.	.	.	4a/	4ee\
.	16ee\	16gg\	.	.	.	.	.	.	.	.
8AA/	16cc#\	16ee\	.	.	.	.	.	.	.	.
.	16cc#\JJ	16ee\JJ	.	.	.	.	.	.	.	.
8AA/	16e/LL	16a\LL	.	.	.	.	.	.	8r	8r
.	16a/	16cc#\	.	.	.	.	.	.	.	.
8AA/J	16cc#/	16ee\	.	.	.	.	.	.	8ee\	8gg\
.	16ee/JJ	16gg\JJ	.	.	.	.	.	.	.	.
*Xtremolo	*	*	*	*	*	*	*	*	*	*
=7	=7	=7	=7	=7	=7	=7	=7	=7	=7	=7
!LO:TX:a:t=P:problem=mixed beam	!	!	!	!	!	!	!	!	!	!
8AA/L	8dd\L	8ff#\L	.	.	.	.	.	.	8dd/L	8ff#\L
16A\L	8cc#\J	8ee\J	.	.	.	.	.	.	16a/L	16ee\L
16G\JJ	.	.	.	.	.	.	.	.	16a/JJ	16ee\JJ
8F#\L	8r	8r	.	.	.	.	.	.	8a/	8ee\
!	!LO:LB:g=original	!	!	!	!	!	!	!	!	!
8D\J	8a/	8a/	.	.	.	.	.	.	8r	8r
*	*tremolo	*	*	*	*	*	*	*	*	*
8G\L	8b/L	16b\LL	.	.	.	.	.	.	2r	2r
.	.	16a\	.	.	.	.	.	.	.	.
8G\	8b/	16b\	.	.	.	.	.	.	.	.
.	.	16cc#\JJ	.	.	.	.	.	.	.	.
8G\	8b/	16dd\LL	.	.	.	.	.	.	.	.
.	.	16cc#\	.	.	.	.	.	.	.	.
8G\J	8b/J	16dd\	.	.	.	.	.	.	.	.
.	.	16ee\JJ	.	.	.	.	.	.	.	.
!	!	!	!	!	!	!	!	!	!LO:LB:g=original	!LO:LB:g=original
=8	=8	=8	=8	=8	=8	=8	=8	=8	=8	=8
*tremolo	*	*	*	*	*	*	*	*	*	*
8A\L	8cc#\L	16cc#\LL	.	.	.	.	.	.	1r	1r
.	.	16b\	.	.	.	.	.	.	.	.
8A\	8cc#\	16cc#\	.	.	.	.	.	.	.	.
.	.	16dd\JJ	.	.	.	.	.	.	.	.
8A\	8cc#\	16ee\LL	.	.	.	.	.	.	.	.
.	.	16dd\	.	.	.	.	.	.	.	.
8A\J	8cc#\J	16ee\	.	.	.	.	.	.	.	.
.	.	16ff#\JJ	.	.	.	.	.	.	.	.
8B\L	8dd\L	16dd\LL	.	.	.	.	.	.	.	.
.	.	16cc#\	.	.	.	.	.	.	.	.
8B\	8dd\	16dd\	.	.	.	.	.	.	.	.
.	.	16ee\JJ	.	.	.	.	.	.	.	.
8B\	8dd\	16ff#\LL	.	.	.	.	.	.	.	.
.	.	16ee\	.	.	.	.	.	.	.	.
8B\J	8dd\J	16ff#\	.	.	.	.	.	.	.	.
.	.	16gg\JJ	.	.	.	.	.	.	.	.
=9	=9	=9	=9	=9	=9	=9	=9	=9	=9	=9
8c#\L	8ee\L	16ee\LL	00r	.	00r	.	00r	.	4r	4r
.	.	16dd\	.	.	.	.	.	.	.	.
8c#\	8ee\	16ee\	.	.	.	.	.	.	.	.
.	.	16ff#\JJ	.	.	.	.	.	.	.	.
8c#\	8ee\	16gg\LL	.	.	.	.	.	.	8r	8r
.	.	16ff#\	.	.	.	.	.	.	.	.
8c#\J	8ee\J	16gg\	.	.	.	.	.	.	8a/	8ee\
.	.	16aa\JJ	.	.	.	.	.	.	.	.
*Xtremolo	*Xtremolo	*	*	*	*	*	*	*	*	*
!LO:TX:a:t=P:problem=mixed beam	!	!	!	!	!	!	!	!	!	!
8d\L	8dd\L	8ff#\L	.	.	.	.	.	.	4dd\	4ff#\
8D/	16ff#\L	16bb\L	.	.	.	.	.	.	.	.
.	16ff#\JJ	16bb\JJ	.	.	.	.	.	.	.	.
8F#/	16ff#\LL	16aa\LL	.	.	.	.	.	.	8ff#\L	8aa\L
.	16ff#\	16aa\	.	.	.	.	.	.	.	.
8A/J	16ee\	16gg\	.	.	.	.	.	.	8ee\J	8gg\J
.	16ee\JJ	16gg\JJ	.	.	.	.	.	.	.	.
=10	=10	=10	=10	=10	=10	=10	=10	=10	=10	=10
!LO:TX:a:t=P:problem=mixed beam	!	!	!	!	!	!	!	!	!	!
.	.	8qqgg/	.	.	.	.	.	.	.	.
8A\L	8dd\L	8ff#\L	.	.	.	.	.	.	4dd\	4ff#\
8G\	16b\L	16ee\L	.	.	.	.	.	.	.	.
.	16g\JJ	16dd\JJ	.	.	.	.	.	.	.	.
8A\	8f#/L	4ee\	.	.	.	.	.	.	8a/L	8ee\L
8AA/J	8g/J	.	.	.	.	.	.	.	8a/J	8ee\J
8D\L	4.f#/	4.dd\	.	.	.	.	.	.	8dd\L	8ff#\L
16A\L	.	.	.	.	.	.	.	.	16dd\L	16ff#\L
16G\JJ	.	.	.	.	.	.	.	.	16dd\JJ	16ff#\JJ
8F#\L	.	.	.	.	.	.	.	.	8dd\	8ff#\
8D\J	8a/	8a/	.	.	.	.	.	.	8r	8r
=11	=11	=11	=11	=11	=11	=11	=11	=11	=11	=11
*tremolo	*tremolo	*	*	*	*	*	*	*	*	*
!	!	!	!	!	!	!	!	!	!LO:TX:a:t=2	!LO:TX:a:t=2
8G\L	8b\L	16b\LL	.	.	.	.	.	.	0r	0r
.	.	16a\	.	.	.	.	.	.	.	.
8G\	8b\	16b\	.	.	.	.	.	.	.	.
.	.	16cc#\JJ	.	.	.	.	.	.	.	.
8G\	8b\	16dd\LL	.	.	.	.	.	.	.	.
.	.	16cc#\	.	.	.	.	.	.	.	.
8G\J	8b\J	16dd\	.	.	.	.	.	.	.	.
.	.	16ee\JJ	.	.	.	.	.	.	.	.
8A\L	8cc#\L	16cc#\LL	.	.	.	.	.	.	.	.
.	.	16b\	.	.	.	.	.	.	.	.
8A\	8cc#\	16cc#\	.	.	.	.	.	.	.	.
.	.	16dd\JJ	.	.	.	.	.	.	.	.
8A\	8cc#\	16ee\LL	.	.	.	.	.	.	.	.
.	.	16dd\	.	.	.	.	.	.	.	.
8A\J	8cc#\J	16ee\	.	.	.	.	.	.	.	.
.	.	16ff#\JJ	.	.	.	.	.	.	.	.
!	!	!LO:LB:g=original	!	!	!	!	!	!	!	!
=12	=12	=12	=12	=12	=12	=12	=12	=12	=12	=12
8B\L	8dd\L	16dd\LL	.	.	.	.	.	.	.	.
.	.	16cc#\	.	.	.	.	.	.	.	.
8B\	8dd\	16dd\	.	.	.	.	.	.	.	.
.	.	16ee\JJ	.	.	.	.	.	.	.	.
8B\	8dd\	16ff#\LL	.	.	.	.	.	.	.	.
.	.	16ee\	.	.	.	.	.	.	.	.
8B\J	8dd\J	16ff#\	.	.	.	.	.	.	.	.
.	.	16gg\JJ	.	.	.	.	.	.	.	.
8c#\L	8ee\L	16ee\LL	.	.	.	.	.	.	.	.
.	.	16dd\	.	.	.	.	.	.	.	.
8c#\	8ee\	16ee\	.	.	.	.	.	.	.	.
.	.	16ff#\JJ	.	.	.	.	.	.	.	.
8c#\	8ee\	16gg\LL	.	.	.	.	.	.	.	.
.	.	16ff#\	.	.	.	.	.	.	.	.
8c#\J	8ee\J	16gg\	.	.	.	.	.	.	.	.
.	.	16aa\JJ	.	.	.	.	.	.	.	.
*Xtremolo	*Xtremolo	*	*	*	*	*	*	*	*	*
=13	=13	=13	=13	=13	=13	=13	=13	=13	=13	=13
!LO:TX:a:t=P:problem=mixed beam	!	!	!	!	!	!	!	!	!	!
8d\L	16dd\LL	16ff#\LL	1r	.	1r	.	1r	.	8dd\L	8ff#\L
.	16dd\	16ff#\	.	.	.	.	.	.	.	.
8D/	16ff#\	16ddd\	.	.	.	.	.	.	16dd\L	16ff#\L
.	16ff#\JJ	16ddd\JJ	.	.	.	.	.	.	16dd\JJ	16ff#\JJ
8F#/	16ff#\LL	16aa\LL	.	.	.	.	.	.	8dd\L	8ff#\L
.	16ff#\	16aa\	.	.	.	.	.	.	.	.
8A/J	16ee\	16gg\	.	.	.	.	.	.	8a\J	8ee\J
.	16ee\JJ	16gg\JJ	.	.	.	.	.	.	.	.
!LO:TX:a:t=P:problem=mixed beam	!	!	!	!	!	!	!	!	!	!
8d\L	16dd\LL	16ff#\LL	.	.	.	.	.	.	8dd\L	8ff#\L
.	16dd\	16ff#\	.	.	.	.	.	.	.	.
8D/	16ff#\	16ddd\	.	.	.	.	.	.	16dd\L	16ff#\L
.	16ff#\JJ	16ddd\JJ	.	.	.	.	.	.	16dd\JJ	16ff#\JJ
8F#/	16ff#\LL	16aa\LL	.	.	.	.	.	.	8dd\L	8ff#\L
.	16ff#\	16aa\	.	.	.	.	.	.	.	.
8A/J	16ee\	16gg\	.	.	.	.	.	.	8a\J	8ee\J
.	16ee\JJ	16gg\JJ	.	.	.	.	.	.	.	.
!LO:LB:g=original	!	!	!	!	!	!	!	!	!	!
=14	=14	=14	=14	=14	=14	=14	=14	=14	=14	=14
!LO:TX:a:t=P:problem=mixed beam	!	!	!	!	!	!	!	!	!	!
8d\L	8dd\L	8ff#\L	2r	.	2r	.	2r	.	4dd\	8ff#\L
8G\	16b\L	16ee\L	.	.	.	.	.	.	.	8ff#\
.	16g\JJ	16dd\JJ	.	.	.	.	.	.	.	.
8A\	4e/	4ee\	.	.	.	.	.	.	8a/L	8ee\
8AA/J	.	.	.	.	.	.	.	.	8a/J	8ee\J
4D\	4ff#\	4ddd\	4d\	Lau-	4d\	Lau-	4ff#\	Lau-	4dd\	4ff#\
4AA/	4ee\	4ccc#\	4A\	-da-	4c#\	-da-	4ee\	-da-	4a/	4ee\
=15	=15	=15	=15	=15	=15	=15	=15	=15	=15	=15
8D\L	16ff#\LL	16ddd\LL	8D\	-te	8d\	-te	8ff#\	-te	4dd\	4ff#\
.	16aa\	16aa\	.	.	.	.	.	.	.	.
8D\	16aa\	16aa\	8r	.	8r	.	16aa\LL	Do-	.	.
.	16ff#\JJ	16ff#\JJ	.	.	.	.	16ff#\JJ	.	.	.
8F#\	16dd/LL	16dd/LL	4r	.	4r	.	8dd\	-mi-	8r	8r
.	16a/	16a/	.	.	.	.	.	.	.	.
8D\J	16f#/	16f#/	.	.	.	.	8a\	-num	8dd\	8ff#\
.	16d/JJ	16d/JJ	.	.	.	.	.	.	.	.
!LO:TX:a:t=P:problem=mixed beam	!	!	!	!	!	!	!	!	!	!
8G\L	8.b/L	8.b\L	8G\	om-	8r	.	8b\	om-	4ee\	4gg\
8E\	.	.	8E\	-nes	8G/	om-	8b\	-nes	.	.
.	16g/Jk	16dd\Jk	.	.	.	.	.	.	.	.
!	!	!	!LO:TX:a:t=P:problem=mixed beam	!	!	!	!	!	!	!
.	8qqf#/	8qqdd/	.	.	.	.	.	.	.	.
8A\	4e/	4cc#\	8A\L	gen-	8G/	-nes	4cc#\	gen-	4a/	4ee\
8AA/J	.	.	8AA/J	.	8E/	gen-	.	.	.	.
=16	=16	=16	=16	=16	=16	=16	=16	=16	=16	=16
!	!LO:TX:a:t=P:problem=mixed beam	!	!	!	!LO:N:vis=4	!	!	!	!	!
8D\L	16f#/LL	16dd\LL	8D\	-tes	8F#/	-tes	16dd\	-tes	4dd\	4ff#\
.	16aa\	16aa\	.	.	.	.	16aa\	lau-	.	.
8D\	16aa\	16aa\	8r	.	8r	.	16ff#\	-da-	.	.
.	16ff#\JJ	16ff#\JJ	.	.	.	.	16dd\	-te	.	.
!	!	!	!	!	!	!	!LO:LB:g=original	!	!	!
8F#\	16dd/LL	16dd/LL	4r	.	4r	.	8dd\	e-	8r	8r
.	16a/	16a/	.	.	.	.	.	.	.	.
8D\J	16f#/	16f#/	.	.	.	.	8a\	-um	8dd\	8ff#\
.	16d/JJ	16d/JJ	.	.	.	.	.	.	.	.
!LO:TX:a:t=P:problem=mixed beam	!	!	!	!	!	!	!	!	!	!
8G\L	8.b/L	8.b\L	8G\	om-	8G/	om-	8b\	om-	4ee\	4gg\
8E\	.	.	8E\	-nes	8G/	-nes	8b\	-nes	.	.
.	16g/Jk	16ee\Jk	.	.	.	.	.	.	.	.
!	!	!	!LO:LB:g=original	!	!	!	!	!	!	!
.	8qqf#/	8qqdd/	.	.	.	.	.	.	.	.
8A\	4e/	4cc#\	8A\	po-	8E/	po-	8.cc#\	po-	4a/	4ee\
8AA/J	.	.	8AA/	-pu-	8E/	-pu-	.	.	.	.
.	.	.	.	.	.	.	16b\	-pu-	.	.
=17	=17	=17	=17	=17	=17	=17	=17	=17	=17	=17
!LO:TX:a:t=P:problem=mixed beam	!LO:TX:a:t=P:problem=mixed beam	!	!	!	!	!	!	!	!	!
16D/LL	16f#/LL	16dd\LL	4d\	-li	4F#/	-li	4dd\	-li	8dd\L	8ff#\L
16d\	16dd\	16dd\	.	.	.	.	.	.	.	.
16c#\	16cc#\	16cc#\	.	.	.	.	.	.	16dd\L	16ff#\L
16B\JJ	16b\JJ	16b\JJ	.	.	.	.	.	.	16dd\JJ	16ff#\JJ
!	!LO:LB:g=original	!	!	!	!	!	!	!	!	!
16A\LL	16a/LL	16a/LL	4r	.	4r	.	4r	.	8dd\L	8ff#\L
16G\	16g/	16g/	.	.	.	.	.	.	.	.
16F#\	16f#/	16f#/	.	.	.	.	.	.	8dd\J	8ff#\J
16E\JJ	16e/JJ	16e/JJ	.	.	.	.	.	.	.	.
*tremolo	*	*	*	*	*	*	*	*	*	*
8D\L	16d/LL	16d/LL	4d\	Quo-	4d\	Quo-	4ff#\	Quo-	4dd\	4ff#\
.	16d/	16f#/	.	.	.	.	.	.	.	.
8D\	16f#/	16a/	.	.	.	.	.	.	.	.
.	16a/JJ	16dd/JJ	.	.	.	.	.	.	.	.
8D\	16dd\LL	16ff#\LL	8d\	-ni-	8d\	-ni-	8ff#\	-ni-	4dd\	4ff#\
.	16ff#\	16aa\	.	.	.	.	.	.	.	.
8D\J	16dd\	16ff#\	8d\	-am	8d\	-am	8ff#\	-am	.	.
.	16a\JJ	16dd\JJ	.	.	.	.	.	.	.	.
!	!	!LO:LB:g=original	!	!	!	!	!	!	!LO:LB:g=original	!LO:LB:g=original
=18	=18	=18	=18	=18	=18	=18	=18	=18	=18	=18
*	*Xtuplet	*	*	*	*	*	*	*	*	*
!	!	!	!	!	!LO:SIC:s=4d:v	!	!	!	!	!
8D\L	4ff# 4a 4d/	4ff# 4a 4d/	4d\	Con-	4c#\	con-	4ff#\	con-	8dd\L	8ff#\L
8D\	.	.	.	.	.	.	.	.	16dd\L	16ff#\L
.	.	.	.	.	.	.	.	.	16dd\JJ	16ff#\JJ
8D\	4ff# 4a 4d/	4ff# 4a 4d/	4D\	-fir-	4d\	-fir-	4ff#\	-fir-	8dd\L	8ff#\L
8D\J	.	.	.	.	.	.	.	.	8dd\J	8ff#\J
*Xtremolo	*	*	*	*	*	*	*	*	*	*
!LO:TX:a:t=P:problem=mixed beam	!	!	!	!	!	!	!	!	!	!
!	!	!LO:TUP:a:problem=klamra łukowa	!	!	!	!	!	!	!	!
8A\L	24cc#/LL	24ee\LL	4A\	-ma-	4c#\	-ma-	4ee\	-ma-	4a/	4ee\
.	24a/	24cc#\	.	.	.	.	.	.	.	.
.	24e/JJ	24a\JJ	.	.	.	.	.	.	.	.
8AA/	16e/LL	(>16a\LL	.	.	.	.	.	.	.	.
.	16a/JJ	16cc#\JJ)	.	.	.	.	.	.	.	.
8AA/	16cc#\LL	(>16ee\LL	8A\	-ta	8c#\	-ta	8ee\	-ta	4a/	4ee\
.	16ee\	16aa\	.	.	.	.	.	.	.	.
8AA/J	16cc#\	16ee\)	8A\	est	8c#\	est	8ee\	est	.	.
.	16a\JJ	16cc#\JJ	.	.	.	.	.	.	.	.
*	*tuplet	*	*	*	*	*	*	*	*	*
=19	=19	=19	=19	=19	=19	=19	=19	=19	=19	=19
*	*^	*	*	*	*	*	*	*	*	*
*	*	*	*^	*	*	*	*	*	*	*	*
*tremolo	*	*	*	*	*	*	*	*	*	*	*	*
8AA/L	4ee 4cc#/	4a\	4ee 4cc#/	4a\	4AA/	ſu-	4c#\	ſu-	4ee\	ſu-	8a/L	8ee\L
8AA/	.	.	.	.	.	.	.	.	.	.	16a/L	16ee\L
.	.	.	.	.	.	.	.	.	.	.	16a/JJ	16ee\JJ
8AA/	4ee 4cc#/	4a\	4ee 4cc#/	4a\	4AA/	-per	4c#\	-per	4ee\	-per	8a/L	8ee\L
8AA/J	.	.	.	.	.	.	.	.	.	.	16a/L	8ee\J
.	.	.	.	.	.	.	.	.	.	.	16a/JJ	.
!	!	!	!LO:TX:a:t=P:problem=mixed beam	!	!	!	!	!	!	!	!	!
8E\L	16b/LL	4ryy	16dd\LL	4ryy	4E\	nos	4B\	nos	4dd\	nos	4ee\	4ee\
.	16B/	.	16e/	.	.	.	.	.	.	.	.	.
8E\	16e/	.	16g#X/	.	.	.	.	.	.	.	.	.
.	16g#X/JJ	.	16b/JJ	.	.	.	.	.	.	.	.	.
8E\	16b\LL	4ryy	16dd\LL	4ryy	4E\	mi-	4B\	mi-	4dd\	mi-	8r	8r
.	16b\	.	16gg#X\	.	.	.	.	.	.	.	.	.
8E\J	16dd\	.	16bb\	.	.	.	.	.	.	.	8ee\	8ee\
.	16b\JJ	.	16dd\JJ	.	.	.	.	.	.	.	.	.
!	!	!	!	!	!	!	!LO:LB:g=original	!	!	!	!	!
*	*	*	*v	*v	*	*	*	*	*	*	*	*
*	*v	*v	*	*	*	*	*	*	*	*	*
=20	=20	=20	=20	=20	=20	=20	=20	=20	=20	=20
!	!	!LO:TX:a:t=P:problem=mixed beam	!	!	!	!	!	!	!	!
8A\L	16a/LL	16cc#\LL	4A\	-se-	4A\	-se-	4cc#\	-se-	4a/	4ee\
.	16c#/	16e/	.	.	.	.	.	.	.	.
8A\	16e/	16a/	.	.	.	.	.	.	.	.
.	16a/JJ	16cc#/JJ	.	.	.	.	.	.	.	.
8A\	16cc#\LL	16ee\LL	4AA/	-ri-	4c#\	-ri-	4ee\	-ri-	4r	4r
.	16cc#\	16aa\	.	.	.	.	.	.	.	.
8A\J	16ee\	16ccc#\	.	.	.	.	.	.	.	.
.	16cc#\JJ	16ee\JJ	.	.	.	.	.	.	.	.
!	!	!LO:TX:a:t=P:problem=mixed beam	!	!	!	!	!	!	!	!
8E\L	16b/LL	16dd\LL	4E\	-cor-	4B\	-cor-	4dd\	-cor-	4ee\	4ee\
.	16B/	16e/	.	.	.	.	.	.	.	.
8E\	16e/	16g#X/	.	.	.	.	.	.	.	.
.	16g#X/JJ	16b/JJ	.	.	.	.	.	.	.	.
8E\	16b\LL	16dd\LL	8E\	-di-	8B\	-di-	8dd\	-di-	4r	4r
.	16b\	16gg#X\	.	.	.	.	.	.	.	.
8E\J	16dd\	16bb\	8E\	-a	8B\	-a	8dd\	-a	.	.
.	16b\JJ	16dd\JJ	.	.	.	.	.	.	.	.
=21	=21	=21	=21	=21	=21	=21	=21	=21	=21	=21
*	*	*Xtuplet	*	*	*	*	*	*	*	*
!	!	!	!LO:TX:a:t=P:problem=mixed beam	!	!	!	!	!	!LO:SIC:s=4dd:v	!LO:SIC:s=4dd:v
!	!LO:TUP:b:problem=klamra łukowa	!	!	!	!	!	!	!	!	!
8AA/L	24a/LL	24cc#\LL	8A\L	E-	8A\	e-	8cc#\	E-	4dd\	4ff#\
.	24cc#/	24ee\	.	.	.	.	.	.	.	.
.	24b/JJ	24gg#X\JJ	.	.	.	.	.	.	.	.
8AA/	16aa\LL	16aa\LL	8AA/J	.	16a\LL	.	16aa\LL	.	.	.
.	16gg#X\JJ	16gg#\JJ	.	.	16g#X\JJ	.	16gg#X\JJ	.	.	.
8AA/	16ff#\LL	16ff#\LL	2.AA/	.	16f#\LL	.	16ff#\LL	.	4r	4r
.	16ee\	16ee\	.	.	16e\	.	16ee\	.	.	.
8AA/J	16dd\	16dd\	.	.	16d\	.	16dd\	.	.	.
.	16cc#\JJ	16cc#\JJ	.	.	16c#\JJ	.	16cc#\JJ	.	.	.
!	!LO:N:vis=16	!	!	!	!	!	!	!	!	!
8AA/L	8dd\L	8dd\L	.	.	8d\L	.	8dd\L	.	4dd\	4ff#\
8AA/	16ff#\L	16ff#\L	.	.	16f#\L	.	16ff#\L	.	.	.
.	16ee\JJ	16ee\JJ	.	.	16e\JJ	.	16ee\JJ	.	.	.
8AA/	16dd\LL	16dd\LL	.	.	16d\LL	.	16dd\LL	.	4r	4r
.	16cc#\	16cc#\	.	.	16c#\	.	16cc#\JJ	.	.	.
8AA/J	16b\	16b\	.	.	16B\	.	16b\LL	.	.	.
.	16a#X\JJ	16a#X\JJ	.	.	16A#X\JJ	.	16a#X\JJ	.	.	.
*Xtremolo	*	*	*	*	*	*	*	*	*	*
=22	=22	=22	=22	=22	=22	=22	=22	=22	=22	=22
*	*Xtuplet	*	*	*	*	*	*	*	*	*
8D\L	24b\LL	8b\L	4D\	.	8B\L	.	8b\L	.	2r	2r
.	24dd\	.	.	.	.	.	.	.	.	.
.	24cc#\JJ	.	.	.	.	.	.	.	.	.
8D\	8cc#\	16dd\L	.	.	16d\L	.	16dd\L	.	.	.
.	.	16cc#\JJ	.	.	16c#\JJ	.	16cc#\JJ	.	.	.
8D\	16b/LL	16b/LL	8D\L	.	16B\LL	.	16b\LL	.	.	.
.	16an/	16an/	.	.	16A\	.	16an\	.	.	.
8D#X\J	16g#X/	16g#X/	8D#X\J	.	16G\	.	16g\	.	.	.
.	16f#/JJ	16f#/JJ	.	.	16F#\JJ	.	16f#\JJ	.	.	.
!	!	!	!	!	!	!	!LO:LB:g=original	!	!	!
!	!LO:TX:a:t=P:problem=mixed beam	!LO:TX:a:t=P:problem=mixed beam	!	!	!	!	!	!	!	!
16E\LL	16e/LL	16e/LL	16E\LL	-jus	8E/	-ius	8e/	-jus	4a/	4ee\
16c#\	16ee\	16ee\	16c#\JJ	.	.	.	.	.	.	.
16B\	16ee\	16ee\	16B\LL	et	8c#\	et	8ee\	et	.	.
16A\JJ	16ee\JJ	16ee\JJ	16A\JJ	.	.	.	.	.	.	.
16G#X\LL	16ee\LL	16ee\LL	16G#X\LL	ve-	8c#\	ve-	8ee\	ve-	4r	4r
16A\	16ee\	16ee\	16A\JJ	.	.	.	.	.	.	.
*	*tuplet	*	*	*	*	*	*	*	*	*
!	!LO:TUP:a:problem=klamra łukowa	!	!	!	!	!	!	!	!	!
!	!LO:N:vis=48	!LO:N:vis=48	!	!	!	!	!	!	!	!
16G#\	24ee\	24ee\	16G#\	-ri-	16B\	-ri-	16dd\	-ri-	.	.
!	!LO:N:vis=48	!LO:N:vis=48	!	!	!	!	!	!	!	!
.	24ff#\	24ff#\	.	.	.	.	.	.	.	.
16F#\JJ	.	.	16F#\	-tas	16B\	-tas	16dd\	-tas	.	.
!	!LO:N:vis=48	!LO:N:vis=48	!	!	!	!	!	!	!	!
.	24gg#X\JJ	24gg#X\JJ	.	.	.	.	.	.	.	.
=23	=23	=23	=23	=23	=23	=23	=23	=23	=23	=23
16E\LL	16aa\LL	16aa\LL	16E\LL	do-	8A\	Do-	8cc#\	Do-	4a/	4ee\
16c#\	16ee\	16ee\	16c#\JJ	.	.	.	.	.	.	.
16B\	16ee\	16ee\	16B\LL	-mi-	16c#\	-mi-	16ee\	-mi-	.	.
16A\JJ	16ee\JJ	16ee\JJ	16A\JJ	-ni	16c#\	-ni	16ee\	-ni	.	.
!	!LO:LB:g=original	!LO:LB:g=original	!	!	!	!	!	!	!	!
16G#X\LL	16ee\LL	16ee\LL	16G#X\LL	ma-	8c#\	ma-	8ee\	Ma-	4r	4r
16A\	16ee\	16ee\	16A\JJ	.	.	.	.	.	.	.
!	!LO:TUP:a:problem=klamra łukowa	!	!	!	!	!	!	!	!	!
!	!LO:N:vis=48	!LO:N:vis=48	!	!	!	!	!	!	!	!
16G#\	24ee\	24ee\	16G#\LL	-net	8B\	-net	8dd\	-net	.	.
!	!LO:N:vis=48	!LO:N:vis=48	!	!	!	!	!	!	!	!
.	24ff#\	24ff#\	.	.	.	.	.	.	.	.
16F#\JJ	.	.	16F#\JJ	.	.	.	.	.	.	.
!	!LO:N:vis=48	!LO:N:vis=48	!	!	!	!	!	!	!	!
.	24gg#X\JJ	24gg#X\JJ	.	.	.	.	.	.	.	.
8E\L	16cc#\LL	16aa\LL	8C#\	in	8A\	in	8cc#\	in	8a/L	8ee\L
.	16cc#\	16ee\	.	.	.	.	.	.	.	.
16D\L	16dd\	16ff#\	16D\LL	ae-	8B\	e-	8dd\	e-	8dd/J	8ff#\J
16F#\JJ	16b\JJ	16dd\JJ	16F#\JJ	.	.	.	.	.	.	.
8E\L	4a/	8cc#\L	4E\	-ter-	8A/L	-ter-	8cc#\L	-ter-	8ee\L	8ee\L
8E\J	.	8b\J	.	.	8G#X/J	.	8b\J	.	16ee\L	16ee\L
.	.	.	.	.	.	.	.	.	16ee\JJ	16ee\JJ
=24	=24	=24	=24	=24	=24	=24	=24	=24	=24	=24
*tremolo	*	*	*	*	*	*	*	*	*	*
!	!	!LO:TX:a:t=P:problem=znak początku repetycji	!	!	!	!	!	!	!	!
8AA/L	16a\LL	16a\LL	4AA/	-num	4A/	-num	4a\	-num	4a/	4ee\
.	16cc#\	16cc#\	.	.	.	.	.	.	.	.
8AA/	16ee\	16ee\	.	.	.	.	.	.	.	.
.	16dd\JJ	16dd\JJ	.	.	.	.	.	.	.	.
8AA/	16cc#\LL	16cc#\LL	4r	.	4r	.	4r	.	4r	4r
.	16b\	16b\	.	.	.	.	.	.	.	.
8AA/J	16a#X\	16a#X\	.	.	.	.	.	.	.	.
!	!	!LO:TX:a:t=bis	!	!	!	!	!	!	!	!
.	16b\JJ	16b\JJ	.	.	.	.	.	.	.	.
*Xtremolo	*	*	*	*	*	*	*	*	*	*
8D\L	16dd\LL	16ff#\LL	2r	.	2r	.	2r	.	8dd\L	8ff#\L
.	16dd\	16ff#\	.	.	.	.	.	.	.	.
8D\	16cc#\	16ee\	.	.	.	.	.	.	8dd\J	8ff#\J
.	16b\JJ	16dd\JJ	.	.	.	.	.	.	.	.
8E\	16e/LL	16cc#\LL	.	.	.	.	.	.	8ee\L	8ee\L
.	16d/	16b\	.	.	.	.	.	.	.	.
!	!	!LO:SIC:s=16an:v	!	!	!	!	!	!	!	!
8E\J	16c#/	16a#\	.	.	.	.	.	.	16ee\L	16ee\L
.	16B/JJ	16g#X\JJ	.	.	.	.	.	.	16ee\JJ	16ee\JJ
!	!	!LO:TX:a:t=P:problem=znak końca repetycji	!	!	!	!	!	!	!	!
!	!	!	!LO:LB:g=original	!	!	!	!	!	!	!
=25	=25	=25	=25	=25	=25	=25	=25	=25	=25	=25
*tremolo	*	*	*	*	*	*	*	*	*	*
*	*	*rep	*	*	*	*	*	*	*	*
!	!	!LO:TX:a:t=P:problem=powtórzenie taktu oznaczone znakami repetycji	!	!	!LO:TX:a:t=3	!	!	!	!	!
8AA/L	16a\LL	16a\LL	0r	.	0r	.	0r	.	4a/	4ee\
.	16cc#\	16cc#\	.	.	.	.	.	.	.	.
8AA/	16ee\	16ee\	.	.	.	.	.	.	.	.
.	16dd\JJ	16dd\JJ	.	.	.	.	.	.	.	.
8AA/	16cc#\LL	16cc#\LL	.	.	.	.	.	.	4r	4r
.	16b\	16b\	.	.	.	.	.	.	.	.
8AA/J	16a#X\	16a#X\	.	.	.	.	.	.	.	.
.	16b\JJ	16b\JJ	.	.	.	.	.	.	.	.
*Xtremolo	*	*	*	*	*	*	*	*	*	*
8D\L	16dd\LL	16ff#\LL	.	.	.	.	.	.	8dd\L	8ff#\L
.	16dd\	16ff#\	.	.	.	.	.	.	.	.
8D\	16cc#\	16ee\	.	.	.	.	.	.	8dd\J	8ff#\J
.	16b\JJ	16dd\JJ	.	.	.	.	.	.	.	.
8E\	16e/LL	16cc#\LL	.	.	.	.	.	.	8ee\L	8ee\L
.	16d/	16b\	.	.	.	.	.	.	.	.
!	!	!LO:SIC:s=16an:v	!	!	!	!	!	!	!	!
8E\J	16c#/	16a#\	.	.	.	.	.	.	16ee\L	16ee\L
.	16B/JJ	16g#X\JJ	.	.	.	.	.	.	16ee\JJ	16ee\JJ
*	*	*Xrep	*	*	*	*	*	*	*	*
=26	=26	=26	=26	=26	=26	=26	=26	=26	=26	=26
!	!LO:TX:a:t=P:problem=mixed beam	!LO:TX:a:t=P:problem=mixed beam	!	!	!	!	!	!	!	!
8AA/L	16c#/LL	16a/LL	.	.	.	.	.	.	4a/	4ee\
.	16ee\	16aa\	.	.	.	.	.	.	.	.
8AA/	16cc#\	16ee\	.	.	.	.	.	.	.	.
.	16cc#\JJ	16ee\JJ	.	.	.	.	.	.	.	.
!	!LO:TUP:a:problem=klamra łukowa	!	!	!	!	!	!	!	!	!
8C#/	24cc#\LL	24ee\LL	.	.	.	.	.	.	4r	4r
.	24a\	24cc#\	.	.	.	.	.	.	.	.
.	24cc#\JJ	24ee\JJ	.	.	.	.	.	.	.	.
*	*Xtuplet	*	*	*	*	*	*	*	*	*
8E/J	24b/LL	24dd\LL	.	.	.	.	.	.	.	.
.	24g#X/	24b\	.	.	.	.	.	.	.	.
.	24b/JJ	24dd\JJ	.	.	.	.	.	.	.	.
!LO:TX:a:t=P:problem=mixed beam	!	!	!	!	!	!	!	!	!	!
8A\L	16cc#\LL	16cc#\LL	.	.	.	.	.	.	4a/	4ee\
.	16ee\	16aa\	.	.	.	.	.	.	.	.
8AA/	16cc#\	16ee\	.	.	.	.	.	.	.	.
.	16cc#\JJ	16ee\JJ	.	.	.	.	.	.	.	.
8C#/	24cc#\LL	24ee\LL	.	.	.	.	.	.	4r	4r
.	24a\	24cc#\	.	.	.	.	.	.	.	.
.	24cc#\JJ	24ee\JJ	.	.	.	.	.	.	.	.
8E/J	24b/LL	24dd\LL	.	.	.	.	.	.	.	.
.	24g#X/	24b\	.	.	.	.	.	.	.	.
.	24b/JJ	24dd\JJ	.	.	.	.	.	.	.	.
*	*tuplet	*	*	*	*	*	*	*	*	*
!LO:LB:g=original	!	!	!	!	!	!	!	!	!	!
=27	=27	=27	=27	=27	=27	=27	=27	=27	=27	=27
!LO:TX:a:t=P:problem=fragment nieczytelny; defekt rkp	!	!	!	!	!	!	!	!	!	!
4ryy	16a\LL	16cc#\LL	1r	.	1r	.	1r	.	8a/L	8ee\L
.	16cc#\	16aa\	.	.	.	.	.	.	.	.
.	16dd\	16ff#\	.	.	.	.	.	.	8dd/J	8ff#\J
.	16b\JJ	16dd\JJ	.	.	.	.	.	.	.	.
!	!	!	!	!	!	!	!	!	!LO:LB:g=original	!
!LO:TX:a:t=P:problem=mixed beam	!	!	!	!	!	!	!	!	!	!
8E\L	8a/L	8cc#\L	.	.	.	.	.	.	8ee\L	8ee\L
8EE/J	8g#X/J	8b\J	.	.	.	.	.	.	16ee\L	16ee\L
.	.	.	.	.	.	.	.	.	16ee\JJ	16ee\JJ
!LO:TX:a:t=P:problem=mixed beam	!	!	!	!	!	!	!	!	!	!
8AA/L	4a/	4a/	.	.	.	.	.	.	4a/	4ee\
16A\L	.	.	.	.	.	.	.	.	.	.
16B\JJ	.	.	.	.	.	.	.	.	.	.
16A\LL	4r	4r	.	.	.	.	.	.	4r	4r
16G\	.	.	.	.	.	.	.	.	.	.
16F#\	.	.	.	.	.	.	.	.	.	.
16E\JJ	.	.	.	.	.	.	.	.	.	.
!	!	!	!	!	!LO:LB:g=original	!	!	!	!	!LO:LB:g=original
=28	=28	=28	=28	=28	=28	=28	=28	=28	=28	=28
*tremolo	*	*	*	*	*	*	*	*	*	*
8D\L	16d/LL	16d/LL	4d\	Glo-	4A\	Glo-	4ccn\	Glo-	8dd\L	8ff#\L
.	16d/	16f#/	.	.	.	.	.	.	.	.
8D\	16f#/	16a/	.	.	.	.	.	.	16dd\L	16ff#\L
.	16g/JJ	16ccn/JJ	.	.	.	.	.	.	16dd\JJ	16ff#\JJ
8D\	16a/LL	16ff#\LL	8d\	-ri-	8A\	-ri-	8cc\	-ri-	8dd\L	8ff#\L
.	16b/	16gg\	.	.	.	.	.	.	.	.
8D\J	16cc#/	16aa\	8d\	-a	8A\	-a	8cc\	-a	8dd\J	8ff#\J
.	16a/JJ	16cc\JJ	.	.	.	.	.	.	.	.
!	!LO:TUP:b:problem=klamra łukowa	!	!	!	!	!	!	!	!	!
8G\L	24b/LL	24b/LL	8G\	pa-	8G/	Pa-	8b\	pa-	4dd\	4gg\
.	24a/	24a/	.	.	.	.	.	.	.	.
.	24g/JJ	24g/JJ	.	.	.	.	.	.	.	.
8G\	16b\LL	16b\LL	8G\	-tri	8G/	-tri	8b\	-tri	.	.
.	16dd\JJ	16dd\JJ	.	.	.	.	.	.	.	.
8G\	16gg\LL	16gg\LL	4r	.	4r	.	4r	.	4r	4r
.	16dd\	16dd\	.	.	.	.	.	.	.	.
8G\J	16b\	16b\	.	.	.	.	.	.	.	.
.	16g\JJ	16g\JJ	.	.	.	.	.	.	.	.
=29	=29	=29	=29	=29	=29	=29	=29	=29	=29	=29
*	*Xtuplet	*	*	*	*	*	*	*	*	*
8E\L	16B/LL	16e/LL	4e\	glo-	4B\	Glo-	4dd\	glo-	8ee\L	8gg#X\L
.	16e/	16g#X/	.	.	.	.	.	.	.	.
8E\	16g#X/	16b/	.	.	.	.	.	.	16ee\L	16gg#\L
.	16b/JJ	16dd/JJ	.	.	.	.	.	.	16ee\JJ	16gg#\JJ
!	!	!LO:LB:g=original	!	!	!	!	!	!	!	!
8E\	16ee\LL	16gg#X\LL	8e\	-ri-	16B\	-ri-	8dd\	-ri-	8ee\L	8gg#\L
.	16ff#\	16aa\	.	.	16B\	-a	.	.	.	.
!	!LO:SIC:s=16gg#:v	!	!	!	!	!	!	!	!	!
8E\J	16gg\	16bb\	8e\	-a	8A\	Fi-	8dd\	-a	8ee\J	8gg#\J
.	16b\JJ	16dd\JJ	.	.	.	.	.	.	.	.
!	!LO:LB:g=original	!	!	!	!	!	!	!	!	!
8A\L	24cc#\LL	24cc#\LL	16A\	fi-	8A\	-li-	16cc#\	fi-	4a/	4aa\
.	24b\	24b\	.	.	.	.	.	.	.	.
.	.	.	16AA/	-li-	.	.	16cc#\	-li-	.	.
.	24a\JJ	24a\JJ	.	.	.	.	.	.	.	.
8A\	16cc#\LL	16cc#\LL	8AA/	-o	8A\	-o	8cc#\	-o	.	.
.	16ee\JJ	16ee\JJ	.	.	.	.	.	.	.	.
8A\	16aa\LL	16aa\LL	4r	.	4r	.	4r	.	4r	4r
.	16ee\	16ee\	.	.	.	.	.	.	.	.
8A\J	16cc#\	16cc#\	.	.	.	.	.	.	.	.
.	16a\JJ	16a\JJ	.	.	.	.	.	.	.	.
*	*tuplet	*	*	*	*	*	*	*	*	*
*Xtremolo	*	*	*	*	*	*	*	*	*	*
=30	=30	=30	=30	=30	=30	=30	=30	=30	=30	=30
!	!LO:TUP:a:problem=klamra łukowa	!	!	!	!	!	!	!	!	!
8AA/L	24cc#\LL	24cc#\LL	8AA/	et	8c#\	et	8cc#\	et	4a/	4ee\
.	24b\	24b\	.	.	.	.	.	.	.	.
.	24a\JJ	24a\JJ	.	.	.	.	.	.	.	.
!	!LO:TUP:a:problem=klamra łukowa	!	!	!	!	!	!	!	!	!
8AA/	24a\LL	24cc#\LL	8AA/	ſpi-	8c#\	ſpi-	8cc#\	ſpi-	.	.
.	24b\	24dd\	.	.	.	.	.	.	.	.
.	24cc#\JJ	24ee\JJ	.	.	.	.	.	.	.	.
!	!LO:TUP:a:problem=klamra łukowa	!	!	!	!	!	!	!	!	!
8C#/	24cc#\LL	24ee\LL	8C#/	-ri-	8e\	-ri-	8gg\	-ri-	8ee\L	8gg\L
.	24dd\	24ff#\	.	.	.	.	.	.	.	.
.	24ee\JJ	24gg\JJ	.	.	.	.	.	.	.	.
!	!	!LO:SIC:s=16aa:v	!	!	!	!	!	!	!	!
!	!	!LO:N:vis=8	!	!	!	!	!	!	!	!
8D/J	16ee\LL	16gg\LL	16D/	-tu-	16e\	-tu-	16ff#\	-tu-	8dd\J	8ff#\J
!	!	!LO:N:vis=8	!	!	!	!	!	!	!	!
.	16dd\JJ	16ff#\JJ	16D/	-i	16e\	-i	16ee\	-i	.	.
!LO:TX:a:t=P:problem=mixed beam	!	!	!	!	!	!	!	!	!	!
8AA/L	8dd\L	8ff#\L	8A\	ſan-	8d\	ſan-	8ff#\	ſan-	16dd\LL	8ff#\L
.	.	.	.	.	.	.	.	.	16a\J	.
16A\L	8cc#\J	8ee\J	8AA/	-cto	8c#\	-cto,	8ee\	-cto	8a\J	16ee\L
16G\JJ	.	.	.	.	.	.	.	.	.	16ee\JJ
!	!	!	!	!	!	!	!LO:LB:g=original	!	!	!
8F#\L	8r	8r	8r	.	8r	.	8r	.	8a/	8ee\
8D\J	8a/	8a/	8D\	ſi-	8A\	ſi-	8a\	ſi-	8r	8r
=31	=31	=31	=31	=31	=31	=31	=31	=31	=31	=31
*tremolo	*	*	*	*	*	*	*	*	*	*
!	!	!	!	!	!	!	!	!	!LO:TX:a:t=2	!LO:TX:a:t=2
8G\L	8b\L	16b\LL	8G\	.	8G/	.	4b\	-cut	0r	0r
.	.	16a\	.	.	.	.	.	.	.	.
8G\	8b\	16b\	8G\	-cut	8G/	-cut	.	.	.	.
.	.	16cc#\JJ	.	.	.	.	.	.	.	.
8G\	8b\	16b\LL	8G\	e-	8B\	e-	8ee\	e-	.	.
.	.	16cc#\	.	.	.	.	.	.	.	.
8G\J	8b\J	16dd\	8G\	-rat	8B\	-rat	8ee\	-rat	.	.
.	.	16ee\JJ	.	.	.	.	.	.	.	.
*	*tremolo	*	*	*	*	*	*	*	*	*
8A\L	8cc#\L	16cc#\LL	8A\	in	8A\	in	8cc#\	in	.	.
.	.	16b\	.	.	.	.	.	.	.	.
8A\	8cc#\	16cc#\	8A\	prin-	8A\	prin-	8b\	prin-	.	.
.	.	16dd\JJ	.	.	.	.	.	.	.	.
8A\	8cc#\	16ee\LL	8A\	-ci-	8c#\	-ci-	8ff#\	-ci-	.	.
.	.	16dd\	.	.	.	.	.	.	.	.
8A\J	8cc#\J	16ee\	8A\	-pi-	8c#\	-pi-	8ff#\	-pi-	.	.
.	.	16ff#\JJ	.	.	.	.	.	.	.	.
=32	=32	=32	=32	=32	=32	=32	=32	=32	=32	=32
8B\L	8dd\L	16dd\LL	8B\	-o	8B\	-o	8dd\	-o	.	.
.	.	16cc#\	.	.	.	.	.	.	.	.
8B\	8dd\	16dd\	8B\	et	8B\	et	8dd\	et	.	.
.	.	16ee\JJ	.	.	.	.	.	.	.	.
8B\	8dd\	16ff#\LL	8B\	nunc	8d\	nunc	8gg\	nunc	.	.
.	.	16ee\	.	.	.	.	.	.	.	.
8B\J	8dd\J	16ff#\	8B\	et	8d\	et	8gg\	et	.	.
.	.	16gg\JJ	.	.	.	.	.	.	.	.
8c#\L	8ee\L	16ee\LL	8c#\	ſem-	8c#\	ſem-	8ee\	ſem-	.	.
.	.	16dd\	.	.	.	.	.	.	.	.
8c#\	8ee\	16ee\	8c#\	-per	8c#\	-per	8ee\	-per	.	.
.	.	16ff#\JJ	.	.	.	.	.	.	.	.
!	!	!	!	!	!LO:LB:g=original	!	!	!	!	!
8c#\	8ee\	16gg\LL	8c#\	et	8e\	et	8aa\	et	.	.
.	.	16ff#\	.	.	.	.	.	.	.	.
8c#\J	8ee\J	16gg\	8c#\	in	8e\	in	8aa\	in	.	.
.	.	16aa\JJ	.	.	.	.	.	.	.	.
*Xtremolo	*Xtremolo	*	*	*	*	*	*	*	*	*
=33	=33	=33	=33	=33	=33	=33	=33	=33	=33	=33
!LO:TX:a:t=P:problem=mixed beam	!	!	!	!	!	!	!	!	!	!
8d\L	16dd\LL	16ff#\LL	8d\	ſe-	8d\	ſe-	8ff#\	ſe-	8dd\	8ff#\
.	16dd\	16ff#\	.	.	.	.	.	.	.	.
8D/	16ff#\	16ddd\	16D/	-cu-	16f#\	-cu-	16aa\	-cu-	4ff#\	4aa\
.	16ff#\JJ	16ddd\JJ	16D/	-la	16f#\	-la	16aa\	-la	.	.
8F#/	16ff#\LL	16aa\LL	8F#\	ſe-	8f#\	ſe-	8aa\	ſe-	.	.
.	16ff#\	16aa\	.	.	.	.	.	.	.	.
8G/J	16ee\	16gg\	8G\	-cu-	8e\	-cu-	8gg\	-cu-	8ee\	8gg\
.	16ee\JJ	16gg\JJ	.	.	.	.	.	.	.	.
!	!	!	!LO:LB:g=original	!	!	!	!	!	!	!
!LO:TX:a:t=P:problem=mixed beam	!	!	!	!	!	!	!	!	!	!
8A\L	8dd\L	24ff#\LL	8A\	-lo-	8d\	-lo-	8ff#\	-lo-	4dd\	4ff#\
.	.	24ee\	.	.	.	.	.	.	.	.
.	.	24dd\JJ	.	.	.	.	.	.	.	.
8A\	16dd\L	16gg\LL	8A\	-rum	16B\LL	-rum	16ee\LL	-rum	.	.
.	16g\JJ	16ee\JJ	.	.	16G\JJ	.	16dd\JJ	.	.	.
8AA/	4cc#\	4ee\	4AA/	a-	4c#\	a-	4ee\	a-	8a/L	8ee\L
8AA/J	.	.	.	.	.	.	.	.	8a/J	8ee\J
*	*	*tuplet	*	*	*	*	*	*	*	*
!	!	!LO:LB:g=original	!	!	!	!	!	!	!	!
=34	=34	=34	=34	=34	=34	=34	=34	=34	=34	=34
8D\L	4dd\	4dd\	4D\	-men	4d\	-men	4dd\	-men	8dd\L	8ff#\L
16A\L	.	.	.	.	.	.	.	.	16dd\L	16ff#\L
16G\JJ	.	.	.	.	.	.	.	.	16dd\JJ	16ff#\JJ
8F#\L	8r	8r	8r	.	8r	.	8r	.	8dd\	8ff#\
8D\J	8a/	8a/	8D\	et	8A\	et	8a\	et	8r	8r
*tremolo	*tremolo	*	*	*	*	*	*	*	*	*
8G\L	8b\L	16b\LL	4G\	nunc	4G/	nunc	4b\	nunc	2r	2r
.	.	16a\	.	.	.	.	.	.	.	.
8G\	8b\	16b\	.	.	.	.	.	.	.	.
.	.	16cc#\JJ	.	.	.	.	.	.	.	.
8G\	8b\	16dd\LL	4G\	et	4B\	et	4ee\	et	.	.
.	.	16cc#\	.	.	.	.	.	.	.	.
8G\J	8b\J	16dd\	.	.	.	.	.	.	.	.
.	.	16ee\JJ	.	.	.	.	.	.	.	.
=35	=35	=35	=35	=35	=35	=35	=35	=35	=35	=35
!	!	!	!	!	!	!	!	!	!	!LO:TX:a:t=1
8A\L	8cc#\L	16cc#\LL	4A\	ſem-	4A\	ſem-	4cc#\	ſem-	1r	1r
.	.	16b\	.	.	.	.	.	.	.	.
8A\	8cc#\	16cc#\	.	.	.	.	.	.	.	.
.	.	16dd\JJ	.	.	.	.	.	.	.	.
8A\	8cc#\	16ee\LL	4A\	-per	4c#\	-per	4ff#\	-per	.	.
.	.	16dd\	.	.	.	.	.	.	.	.
8A\J	8cc#\J	16ee\	.	.	.	.	.	.	.	.
.	.	16ff#\JJ	.	.	.	.	.	.	.	.
8B\L	8dd\L	16dd\LL	4B\	et	4B\	et	4dd\	et	.	.
.	.	16cc#\	.	.	.	.	.	.	.	.
8B\	8dd\	16dd\	.	.	.	.	.	.	.	.
.	.	16ee\JJ	.	.	.	.	.	.	.	.
8B\	8dd\	16ff#\LL	4B\	in	4d\	in	4gg\	in	.	.
.	.	16ee\	.	.	.	.	.	.	.	.
8B\J	8dd\J	16ff#\	.	.	.	.	.	.	.	.
.	.	16gg\JJ	.	.	.	.	.	.	.	.
=36	=36	=36	=36	=36	=36	=36	=36	=36	=36	=36
8c#\L	8ee\L	16ee\LL	4c#\	ſe-	4c#\	ſe-	4ee\	ſe-	2r	2r
.	.	16dd\	.	.	.	.	.	.	.	.
8c#\	8ee\	16ee\	.	.	.	.	.	.	.	.
.	.	16ff#\JJ	.	.	.	.	.	.	.	.
8c#\	8ee\	16ee\LL	8c#\	-cu-	8e\	-cu-	8aa\	-cu-	.	.
.	.	16ff#\	.	.	.	.	.	.	.	.
8c#\J	8ee\J	16gg\	8c#\	-la	8e\	-la	8aa\	-la	.	.
.	.	16aa\JJ	.	.	.	.	.	.	.	.
*Xtremolo	*Xtremolo	*	*	*	*	*	*	*	*	*
!	!	!	!	!	!	!	!LO:LB:g=original	!	!	!
*	*	*	*	*	*	*	*	*ij	*	*
!LO:TX:a:t=P:problem=mixed beam	!	!	!	!	!	!	!	!	!	!
8d\L	16dd\LL	16ff#\LL	8d\	ſe-	8d\	et	8ff#\	et	8dd\	8ff#\
.	16dd\	16ff#\	.	.	.	.	.	.	.	.
8D/	16ff#\	16ddd\	8D\	-cu-	16f#\	.	16aa\	.	4ff#\	4aa\
.	16ff#\JJ	16ddd\JJ	.	.	16f#\	in	16aa\	in	.	.
8F#/	16ff#\LL	16aa\LL	8F#\	-lo-	8f#\	ſe-	8aa\	ſe-	.	.
.	16ff#\	16aa\	.	.	.	.	.	.	.	.
8A/J	16ee\	16gg\	8A\	-rum	16e\	-cu-	16gg\	-cu-	8ee\	8gg\
.	16ee\JJ	16gg\JJ	.	.	16e\	-la	16gg\	-la	.	.
*	*	*	*	*	*	*	*	*Xij	*	*
=37	=37	=37	=37	=37	=37	=37	=37	=37	=37	=37
!LO:TX:a:t=P:problem=mixed beam	!	!	!	!	!	!	!	!	!	!
8d\L	16dd\LL	16ff#\LL	8d\	ſe-	8d\	ſe-	8ff#\	ſe-	8dd\	8ff#\
.	16dd\	16ff#\	.	.	.	.	.	.	.	.
8D/	16ff#\	16ddd\	8D\	-cu-	8f#\	-cu-	8aa\	-cu-	4ff#\	4aa\
.	16ff#\JJ	16ddd\JJ	.	.	.	.	.	.	.	.
8F#/	16ff#\LL	16aa\LL	8F#\	-lo-	8f#\	-lo-	8aa\	-lo-	.	.
.	16ff#\	16aa\	.	.	.	.	.	.	.	.
8A/J	16ee\	16gg\	8A\	-rum	8e\	-rum	8gg\	-rum	8ee\	8gg\
.	16ee\JJ	16gg\JJ	.	.	.	.	.	.	.	.
!LO:TX:a:t=P:problem=mixed beam	!	!	!	!	!	!	!	!	!	!
8d\L	8dd\L	8ff#\L	8d\L	a-	8d\L	a-	8ff#\L	a-	4dd\	4ff#\
8G\	16b\L	16ee\L	8G\J	.	16c#\L	.	16ee\L	.	.	.
.	16g\JJ	16dd\JJ	.	.	16B\JJ	.	16dd\JJ	.	.	.
!	!	!	!LO:TX:a:t=P:problem=mixed beam	!	!	!	!	!	!	!
8A\	4cc#\	4ee\	8A\L	-men	4c#\	-men	4ee\	-men	8a/L	8ee\L
8AA/J	.	.	8AA/J	.	.	.	.	.	8a/J	8ee\J
=38	=38	=38	=38	=38	=38	=38	=38	=38	=38	=38
*	*^	*	*	*	*	*	*	*	*	*
!LO:TX:a:t=P:problem=mixed beam	!	!	!	!	!	!	!	!	!	!	!
8D\L	8dd\L	4ryy	8ff#\L	4d\	a-	4d\	a-	4dd\	a-	4dd\	4ff#\
8G\	8ff#\J	.	8ddd\J	.	.	.	.	.	.	.	.
8A\	4ee 4cc#/	4a\	4ccc#\	4A\	.	4c#\	.	4ee\	.	8a/L	8ee\L
8AA/J	.	.	.	.	.	.	.	.	.	8a/J	8ee\J
4D\	4ff# 4a 4d/	4ryy	4ddd\	4d\	-men	4d\	-men	4ff#\	-men	4dd\	4ff#\
4r	4r	4ryy	4r	4r	.	4r	.	4r	.	4r	4r
!LO:TX:a:i:t=Magnificat\nVerte	!	!	!	!	!	!	!	!	!	!	!
*	*v	*v	*	*	*	*	*	*	*	*	*
==	==	==	==	==	==	==	==	==	==	==
*-	*-	*-	*-	*-	*-	*-	*-	*-	*-	*-
!!title: @{OTL};
!!!RDF**kern: > = above
!!!RDF**kern: < = below
!!!EED: Wojciech Jakubiak-Danek
!!!EST: 2020-10-18
!!!URL-scan: http://bc.bdsandomierz.pl/dlibra/publication/1258/edition/1226/content
!!!ONB-nifc: UWAGA: części Vesperae: Dixit Dominus, Confitebor, Beatus vir, Laudate pueri, Laudate Dominum, Magnificat
!!!AIN: 4 empty 1 tenor 2 violn 1 vox
!!!ENC: Krzysztof Stępień
!!!END: 2020-05-22
